icons/insomnia-filled.svg

<svg width="256px" height="256px" viewBox="0 0 256 256" version="1.1" xmlns="http://www.w3.org/2000/svg" xmlns:xlink="http://www.w3.org/1999/xlink">
    <defs>
        <radialGradient cx="49.9997366%" cy="50%" fx="49.9997366%" fy="50%" r="50%" id="radialGradient-o0z6e9m0z0-1">
            <stop stop-color="#4000BF" offset="0%"></stop>
            <stop stop-color="#4000BF" offset="100%"></stop>
        </radialGradient>
    </defs>
    <g id="Page-1" stroke="none" stroke-width="1" fill="none" fill-rule="evenodd">
        <g id="insomnia">
            <path d="M196,0 L60,0 C26.8629,0 0,26.8629 0,60 L0,196 C0,229.137 26.8629,256 60,256 L196,256 C229.137,256 256,229.137 256,196 L256,60 C256,26.8629 229.137,0 196,0 Z" id="Path" fill="#4000BF" fill-rule="nonzero"></path>
            <g id="Group" transform="translate(16, 17)">
                <path d="M111.499303,217.330922 C169.9483,217.330922 217.330225,169.948997 217.330225,111.5 C217.330225,53.0517 169.9483,5.669775 111.499303,5.669775 C53.0508637,5.669775 5.66891784,53.0517 5.66891784,111.5 C5.66891784,169.948997 53.0508637,217.330922 111.499303,217.330922 Z" id="Path" fill="#FFFFFF" fill-rule="nonzero"></path>
                <path d="M111.5,0 C49.9202225,0 0,49.9202225 0,111.5 C0,173.080056 49.9202225,223 111.5,223 C173.080056,223 223,173.080056 223,111.5 C223,49.9202225 173.080056,0 111.5,0 Z M111.5,11.3389925 C166.817241,11.3389925 211.661147,56.18262 211.661147,111.5 C211.661147,166.817241 166.817241,211.661147 111.5,211.661147 C56.18262,211.661147 11.3389925,166.817241 11.3389925,111.5 C11.3389925,56.18262 56.18262,11.3389925 111.5,11.3389925 Z" id="Shape" fill="#4000BF" fill-rule="nonzero"></path>
                <path d="M112.75995,32.1275403 C156.596872,32.1275403 192.133316,67.663775 192.133316,111.500697 C192.133316,155.336922 156.596872,190.873366 112.75995,190.873366 C68.9238644,190.873366 33.3874206,155.336922 33.3874206,111.500697 C33.3874206,100.786941 35.5098928,90.5693594 39.3574094,81.2451719 C44.9752672,88.8954656 54.0349906,93.8620937 64.2545928,93.8620937 C81.3023156,93.8620937 95.1220437,80.0423656 95.1220437,62.9947125 C95.1220437,52.7751103 90.1554156,43.7154566 82.504425,38.0976684 C91.8293094,34.2500822 102.046891,32.1275403 112.75995,32.1275403 Z" id="Path" fill="url(#radialGradient-o0z6e9m0z0-1)"></path>
            </g>
        </g>
    </g>
</svg>

<svg xmlns="http://www.w3.org/2000/svg" width="256" height="256"><defs><radialGradient id="radialGradient-o0z6e9m0z0-1" cx="50%" cy="50%" r="50%" fx="50%" fy="50%"><stop offset="0%" stop-color="#4000BF"/><stop offset="100%" stop-color="#4000BF"/></radialGradient></defs><g id="Page-1" fill="none" fill-rule="evenodd" stroke="none" stroke-width="1"><g id="insomnia"><path id="Path" fill="#4000BF" fill-rule="nonzero" d="M196 0H60C26.863 0 0 26.863 0 60v136c0 33.137 26.863 60 60 60h136c33.137 0 60-26.863 60-60V60c0-33.137-26.863-60-60-60"/><g id="Group" transform="translate(16 17)"><path id="Path" fill="#FFF" fill-rule="nonzero" d="M111.5 217.33c58.448 0 105.83-47.381 105.83-105.83S169.948 5.67 111.5 5.67C53.05 5.67 5.668 53.052 5.668 111.5s47.382 105.83 105.83 105.83"/><path id="Shape" fill="#4000BF" fill-rule="nonzero" d="M111.5 0C49.92 0 0 49.92 0 111.5S49.92 223 111.5 223 223 173.08 223 111.5 173.08 0 111.5 0m0 11.339c55.317 0 100.161 44.844 100.161 100.161S166.817 211.661 111.5 211.661 11.339 166.817 11.339 111.5 56.183 11.339 111.5 11.339"/><path id="Path" fill="url(#radialGradient-o0z6e9m0z0-1)" d="M112.76 32.128c43.837 0 79.373 35.536 79.373 79.373 0 43.836-35.536 79.372-79.373 79.372-43.836 0-79.373-35.536-79.373-79.372 0-10.714 2.123-20.932 5.97-30.256 5.618 7.65 14.678 12.617 24.898 12.617 17.047 0 30.867-13.82 30.867-30.867 0-10.22-4.967-19.28-12.618-24.897 9.325-3.848 19.543-5.97 30.256-5.97"/></g></g></g></svg>
